icons/svg/endpoint-warning_12.svg

<?xml version="1.0" encoding="UTF-8"?>
<svg width="12px" height="12px" viewBox="0 0 12 12" version="1.1" xmlns="http://www.w3.org/2000/svg" xmlns:xlink="http://www.w3.org/1999/xlink">
    <!-- Generator: Sketch 57.1 (83088) - https://sketch.com -->
    <title>endpoint-warning_12</title>
    <desc>Created with Sketch.</desc>
    <g id="New-Icon" stroke="none" stroke-width="1" fill="none" fill-rule="evenodd">
        <g id="endpoint-warning_12" fill="#171B1F">
            <g id="fill">
                <path d="M1.2998,9.9998 C0.6268,9.9998 0.0728,9.4888 0.0068,8.8328 L0.0068,8.8328 L-0.0002,8.6998 L-0.0002,3.2998 C-0.0002,2.6268 0.5118,2.0728 1.1668,2.0068 L1.1668,2.0068 L1.2998,1.9998 L8.6998,1.9998 C9.3728,1.9998 9.9268,2.5118 9.9928,3.1668 L9.9928,3.1668 L9.9998,3.2998 L9.9998,7.1088 L11.8624,10.4268 C12.0474,10.7548 12.0444,11.1618 11.8544,11.4878 C11.6872889,11.7731333 11.4079802,11.9557506 11.0902189,11.9928096 L10.9694,11.9998 L6.0304,11.9998 C5.6644,11.9998 5.3334,11.8088 5.1464,11.4878 C4.979275,11.20255 4.9560875,10.8552844 5.0768375,10.5525207 L5.1374,10.4258 L5.3774,9.9998 Z M8.5004,6.4998 L8.5004,6.4998 L8.2174,6.9998 L7.0894,8.9998 L6.5264,9.9998 L6.0054,11.0028 L10.9694,10.9998 L9.9264,9.0898 L8.7844,6.9998 L8.5214,6.5168 L8.51195556,6.50483704 L8.51195556,6.50483704 L8.50517778,6.50042963 Z M8.6895,9.8393 C8.7505,9.8593 8.8105,9.8993 8.8495,9.9393 C8.8615,9.9523 8.8665,9.9673 8.8765,9.9803 C8.9545,10.0743 9.0005,10.1853 9.0005,10.2993 C9.0005,10.4293 8.9495,10.5603 8.8495,10.6493 C8.8105,10.6993 8.7505,10.7393 8.6895,10.7593 C8.6295,10.7903 8.5695,10.7993 8.5005,10.7993 C8.3695,10.7993 8.2395,10.7503 8.1495,10.6493 C8.0495,10.5603 8.0005,10.4293 8.0005,10.2993 C8.0005,10.1933 8.0425,10.0903 8.1095,10.0003 C8.1245,9.9803 8.1315,9.9583 8.1495,9.9393 C8.2905,9.7993 8.5095,9.7593 8.6895,9.8393 Z M8.5,7.3568 C8.74533333,7.3568 8.94958025,7.53378765 8.99193964,7.76696187 L9,7.8568 L9,9.0078 C9,9.2838 8.776,9.5078 8.5,9.5078 C8.25466667,9.5078 8.05041975,9.33081235 8.00806036,9.09763813 L8,9.0078 L8,7.8568 C8,7.5808 8.224,7.3568 8.5,7.3568 Z M5.9378,8.9998 L6.4994,7.9998 L0.9998,7.9998 L0.9998,8.6998 C0.9998,8.8418 1.0988,8.9608 1.2318,8.9918 L1.2318,8.9918 L1.2998,8.9998 L5.9378,8.9998 Z M8.76837143,3.00775918 L8.6998,2.9998 L1.2998,2.9998 C1.1588,2.9998 1.0388,3.0988 1.0078,3.2308 L1.0078,3.2308 L0.9998,3.2998 L0.9998,6.9998 L7.0614,6.9998 L7.6074,6.0268 C7.8854,5.5348 8.5334,5.4108 9.0004,5.6518 L9.0428,5.6768 L8.9998,5.6518 L8.9998,3.2998 C8.9998,3.1348 8.8648,2.9998 8.6998,2.9998 Z M5.5,-0.0002 C5.776,-0.0002 6,0.2238 6,0.4998 C6,0.745133333 5.82301235,0.949380247 5.58983813,0.991739643 L5.5,0.9998 L4.5,0.9998 C4.224,0.9998 4,0.7758 4,0.4998 C4,0.254466667 4.17698765,0.0502197531 4.41016187,0.00786035665 L4.5,-0.0002 L5.5,-0.0002 Z M9.3928,6.0268 L9.3924,6.0268 L9.6578,6.4998 L9.3928,6.0268 L9.3928,6.0268 Z"></path>
            </g>
        </g>
    </g>
</svg>

<svg width="12" height="12" xmlns="http://www.w3.org/2000/svg"><path d="M1.3 10A1.3 1.3 0 01.007 8.833L0 8.7V3.3a1.3 1.3 0 011.167-1.293L1.3 2h7.4a1.3 1.3 0 011.293 1.167L10 3.3v3.809l1.862 3.318c.185.328.182.735-.008 1.06a1.018 1.018 0 01-.764.506l-.12.007H6.03c-.366 0-.697-.191-.884-.512a1.07 1.07 0 01-.07-.935l.061-.127.24-.426zm7.2-3.5l-.283.5L7.09 9l-.563 1-.52 1.003L10.968 11 9.926 9.09 8.784 7l-.263-.483-.009-.012-.007-.005zm.19 3.34a.42.42 0 01.16.1c.011.012.017.027.027.04A.503.503 0 019 10.3c0 .13-.05.26-.15.35a.345.345 0 01-.16.11.392.392 0 01-.19.04.466.466 0 01-.35-.15.467.467 0 01-.15-.35c0-.107.043-.21.11-.3.014-.02.022-.042.04-.06.14-.14.36-.18.54-.1zM8.5 7.356a.5.5 0 01.492.41l.008.09v1.15a.5.5 0 01-.992.09L8 9.008v-1.15a.5.5 0 01.5-.5zM5.938 9l.561-1H1v.7a.3.3 0 00.233.292L1.3 9h4.638zm2.83-5.992L8.7 3H1.3a.301.301 0 00-.292.23L1 3.3V7H7.06l.546-.973c.278-.492.926-.616 1.393-.375l.043.025L9 5.652V3.3a.3.3 0 00-.3-.3zM5.5 0a.5.5 0 01.09.992L5.5 1h-1a.5.5 0 01-.09-.992L4.5 0h1zm3.893 6.027l.265.473-.265-.473z" fill="#171B1F" fill-rule="evenodd"/></svg>
